!!!OTL: 220. Khosidl
!!!Genre:	Khosidl
!!!Mode:	Minor
!!!Listening/dance:	dance
!!!:	*B-:
!!!One_Mode:	no
**kern
*thru
*I"P1
*clefG2
*k[b-e-]
!!!Begin-Modulation
*g:
=6!|:
!LO:TX:a:i:t=G-minor
!LO:TX:a:t="Segno"
16ffKL
(8qaa/
8gg)
16ffJk
8.ggL
16ffJk
=7
(8qgg/
16ffLL)
16ee-J
8ddJ
8.ccL
16b-Jk
=8
16b-KL
(8qdd/
8cc)
16b-Jk
(16b-LL
16a)
((8qb-/
16a)
16gJJ)
!!!End-Modulation1
*>B1
=9
8gL
8b-
8dd
8ggJ
!!!End-Modulation2
*>B
8ff
!!!End-Modulation
*g:
=6!|:
!LO:TX:a:i:t=G-minor
!LO:TX:a:t="Segno"
16ffKL
(8qaa/
8gg)
16ffJk
8.ggL
16ffJk
=7
(8qgg/
16ffLL)
16ee-J
8ddJ
8.ccL
16b-Jk
=8
16b-KL
(8qdd/
8cc)
16b-Jk
(16b-LL
16a)
((8qb-/
16a)
16gJJ)
!!!End-Modulation1
*>B2
=10:|!
!LO:TX:b:Bi:t=Fine
4g
16r
*>C
!!!Begin-Modulation
*-
